X:1
T:[ID 8-83]
T:[ID 8-83]
T:Bezeichnung standardisiert: Schwabisch Schwabisch In dieser Quelle auch als: Angeloise \"Ahnlich in dieser Quelle: ID 10-117a;  ID 1-113b;
T:Urheber unbekannt Datum in der hier transkribierten schriftlichen Quelle: 1792
C:Urheber unbekannt
C:Datum in der hier transkribierten schriftlichen Quelle: 1792
L:1/8
M:none
K:D
V:1 treble 
V:1
 AAA | BBB | ccc | d/c/d/e/d | AAA | BBB | ccc | d3 :: ege | fad | cec | d/c/d/e/d | ege | fad | %14
 cec | d3 :| %16

